!!!OTL: Herr Jesu Christ, Dich zu uns Wend
!!!COL: Orgelbüchlein
**kern	**text	**text	**text	**text	**text	**text	**text	**text
*clefG2	*	*	*	*	*	*	*	*
*k[b-]	*	*	*	*	*	*	*	*
*M6/4	*	*	*	*	*	*	*	*
*F:	*	*	*	*	*	*	*	*
=0	=0	=0	=0	=0	=0	=0	=0	=0
2f	1.Herr	2.Tu	3.bis	4.Ehr	1.Lord	2.Lord,	3.Till	4.To
=1	=1	=1	=1	=1	=1	=1	=1	=1
2a	Je-	auf	wir	sei	Christ,	lead	we	God
4cc	su	den	sin-	dem	re-	us	with	the
2a	Christ,	Mund	gen	Va-	veal	in	An-	Fa-
4g	dich	zum	mit	ter	thy	thy	gels	ther,
=2	=2	=2	=2	=2	=2	=2	=2	=2
4a	zu	Lo-	Got-	und	ho-	ho-	join	God
4b	uns	be	tes	dem	ly	ly	to	the
2cc;	wend,	dein,	Heer:	Sohn,	Face,	Ways,	sing	Son,
2dd	dein’	be-	"Hei-	dem	and	and	Th’e-	And
=3	=3	=3	=3	=3	=3	=3	=3	=3
2cc	Heil-	reit	lig,	Heil-	send	teach	ter-	God
4a	gen	das	hei-	gen	the	our	nal	the
2g	Geist	Herz	lig	Geist	Spi-	Lips	Praise	Spi-
4f	du	zur	ist	in	rit	to	of	rit,
=4	=4	=4	=4	=4	=4	=4	=4	=4
4f	zu	An-	Gott	ei-	of	tell	Thee,	Three
4e	uns	dacht	der	nem	thy	thy	our	in
2f;	send;	fein,	Herr!"	Thron;	Grace,	Praise,	King;	One,
2g	mit	den	und	der	to	in-	Till	Be
=5	=5	=5	=5	=5	=5	=5	=5	=5
2a	Hilf	Gla-	schau-	Hei-	fill	crease	we	Ho-
4a	und	ben	en	li-	our	our	shall	nour,
2g	Gnad	mehr,	dich	gen	Hearts	Faith,	see	Praise,
4cc	er	stärk	von	Drei-	with	and	Thee	and
=6	=6	=6	=6	=6	=6	=6	=6	=6
4cc	uns	den	An-	ei-	fer-	raise	Face	Glo-
4b	re-	Ver-	ge-	nig-	vent	the	to	ry
2cc;	gier	stand,	sicht	keit	Zeal	same	Face,	giv’n,
2a	und	dass	in	sei	to	to	And	By
=7	=7	=7	=7	=7	=7	=7	=7	=7
2b-	uns	uns	ew-	Lob	learn	taste	all	all
4a	den	dein	ger	und	thy	the	the	on
2g	Weg	Nam	Freud	Preis	Truth,	Sweet-	Glo-	Earth,
4f	zur	werd	und	in	and	ness	ries	and
=8	=8	=8	=8	=8	=8	=8	=8	=8
4f	Wahr-	wohl-	sel-	Ew-	do	of	of	all
4e	heit	be-	gem	ig-	thy	thy	thy	in
2f;	führ.	kannt,	Licht.	keit.	Will.	Name.	Grace.	Heav’n.
==	==	==	==	==	==	==	==	==
*-	*-	*-	*-	*-	*-	*-	*-	*-
